icons/accessibility-inset-16.svg

<svg xmlns="http://www.w3.org/2000/svg" width="16" height="16" viewBox="0 0 16 16">
  <defs/>
  <path d="M8,0 C12.418,0 16,3.582 16,8 C16,12.418 12.418,16 8,16 C3.582,16 0,12.418 0,8 C0,3.582 3.582,0 8,0 Z M10,4 C10,3.022 9.293,2.188 8.328,2.027 C7.364,1.867 6.425,2.427 6.108,3.352 C5.791,4.277 6.19,5.296 7.05,5.76 C6.935,5.828 6.828,5.909 6.73,6 L3.75,6 C3.336,6 3,6.336 3,6.75 C3,7.164 3.336,7.5 3.75,7.5 L6.113,7.5 L5.506,13.17 C5.465,13.443 5.576,13.716 5.797,13.882 C6.017,14.048 6.31,14.079 6.561,13.964 C6.812,13.849 6.979,13.605 6.996,13.33 L7.246,11 L8.754,11 L9.004,13.33 C9.048,13.742 9.418,14.04 9.83,13.996 C10.242,13.952 10.54,13.582 10.496,13.17 L9.888,7.5 L12.25,7.5 C12.664,7.5 13,7.164 13,6.75 C13,6.336 12.664,6 12.25,6 L9.27,6 C9.172,5.91 9.065,5.829 8.95,5.76 C9.597,5.411 10,4.735 10,4 Z"/>
</svg>

<svg xmlns="http://www.w3.org/2000/svg" width="16" height="16" viewBox="0 0 16 16"><path d="M8 0a8 8 0 110 16A8 8 0 018 0zm2 4a2 2 0 10-2.95 1.76 1.87 1.87 0 00-.32.24H3.75a.75.75 0 000 1.5h2.363l-.607 5.67a.75.75 0 101.49.16l.25-2.33h1.508l.25 2.33a.75.75 0 001.492-.16L9.888 7.5h2.362a.75.75 0 000-1.5H9.27a1.98 1.98 0 00-.32-.24A2 2 0 0010 4z"/></svg>
